X: 12775
T: Father's Day In The Beech Grove
R: reel
M: 4/4
K: Cmajor
GF|E G3 EGce|fedc B_BA GF|E G3 EGce|dGBd gfed|
EG GGG EGce|fedc B_BA GF|EGce geaf|dGBd c3:|
d|e c3 ABc GF|EBce g c3|AcGc gcec|Addc ABcf|
e c3 AcGc|ecgc a c3|AcGF EGce|dGBd c3:|

